X:3189
T:Snabbvals efter Ljuder Anders
R:Vals
O:Mora, Dalarna
D: Video med V-dala spelmanslag: http://www.youtube.com/watch?v=GkTp7IJl_PA
Z:Karl Ljungkvist, 2013-02-28
M:3/4
L:1/8
K:A Dor
|: A2 cB A2 | Ac BA E2 | A2 AB ^cd | ef ed ^c2 | A2 cB A2 | Ac BA E2 | A2 Ac B^G | ^G2 A4 :|
|: ea af ga | ba ^g2 e2 | fe d2 cd | ed BG A2 | ea af ga | ba ^g2 e2 | fe dc dB | G2 A4 :|
(:musicend:)
(:music:)
